build/system/FilterSolid.svg

<svg xmlns="http://www.w3.org/2000/svg" fill="none" viewBox="0 0 24 24" focusable="false"><path d="M0 0H24V24H0z"/><path fill="#74767B" d="M3.78477 4.69995C3.42578 4.69995 3.13477 4.99097 3.13477 5.34995C3.13477 5.70894 3.42578 5.99995 3.78477 5.99995L4.40683 5.99995L4.56002 7.26991C4.87002 10.3799 6.50001 13 10.2506 14.5L10.2506 19.7379C10.2506 20.1225 10.6667 20.3631 11 20.1713L13.2494 18.8867C13.4045 18.7974 13.5 18.6322 13.5 18.4533L13.5 14.5C17 13.5 19.07 10.4699 19.39 7.26991C19.39 7.26991 19.4986 6.50986 19.5484 5.99995L20.2126 5.99995C20.5716 5.99995 20.8626 5.70894 20.8626 5.34995C20.8626 4.99097 20.5716 4.69995 20.2126 4.69995L3.78477 4.69995Z"/></svg>

<svg xmlns="http://www.w3.org/2000/svg" fill="none" viewBox="0 0 24 24" focusable="false"><path fill="#74767B" d="M3.78 4.69c-.36 0-.65.3-.65.65 0 .36.29.65.65.65h.62l.16 1.27c.31 3.11 1.94 5.73 5.69 7.23v5.24c0 .39.41.63.75.44l2.24-1.29c.16-.09.26-.25.26-.43v-3.96c3.5-1 5.56-4.03 5.89-7.23 0 0 .1-.76.15-1.27h.67c.36 0 .65-.29.65-.65 0-.35-.29-.65-.65-.65z"/></svg>
